X:631
T: LOBE DEN HERREN
N: E1988
O: Europa, Mitteleuropa, Deutschland
R: geistlich, Dank -, Lob - Lied, Choral
M: 3/4
L: 1/4
K: G
 | GGd | BAG
FED | EFG | A3 | G2z
GGd | BAG
FED | EFG | A3 | G2z
ddd | e3
Bcd | dcB | A3
DEF | GAB | A3 | G2z

